X: 16501
T: Hairy Chested Frog, The
R: reel
M: 4/4
K: Gmajor
dBcA G3 B|dBcA G2 Bc|dBcA GBdg|fd d2 fdBc|
dBcA G3 B|dBcA G2 Bc|dBcA GBdg|fdde fdBc||
dg g2 dgbg|g2 bg fdcA|dg g2 dgbg|fdcA GABc|
dg g2 dg g2|dgbg fdga|bg g2 gbag|fdcA GABc||

